icons/user-star-line.svg

<svg xmlns="http://www.w3.org/2000/svg" width="24" height="24" fill="none"><g clip-path="url(#a)"><g><path fill="#121212" d="M12 14V16C10.4087 16 8.88258 16.6321 7.75736 17.7574C6.63214 18.8826 6 20.4087 6 22H4C4 19.8783 4.84285 17.8434 6.34315 16.3431C7.84344 14.8429 9.87827 14 12 14ZM12 13C8.685 13 6 10.315 6 7C6 3.685 8.685 1 12 1C15.315 1 18 3.685 18 7C18 10.315 15.315 13 12 13ZM12 11C14.21 11 16 9.21 16 7C16 4.79 14.21 3 12 3C9.79 3 8 4.79 8 7C8 9.21 9.79 11 12 11ZM18 21.5L15.061 23.045L15.622 19.773L13.245 17.455L16.531 16.977L18 14L19.47 16.977L22.755 17.455L20.378 19.773L20.938 23.045L18 21.5Z"/></g></g><defs><clipPath id="a"><rect width="24" height="24" fill="white"/></clipPath></defs></svg>

<svg width="24" height="24" fill="none" xmlns="http://www.w3.org/2000/svg"><g clip-path="url(#a)"><path d="M12 14v2a6 6 0 0 0-6 6H4a8 8 0 0 1 8-8Zm0-1c-3.315 0-6-2.685-6-6s2.685-6 6-6 6 2.685 6 6-2.685 6-6 6Zm0-2c2.21 0 4-1.79 4-4s-1.79-4-4-4-4 1.79-4 4 1.79 4 4 4Zm6 10.5-2.939 1.545.561-3.272-2.377-2.318 3.286-.478L18 14l1.47 2.977 3.285.478-2.377 2.318.56 3.272L18 21.5Z" /></g><defs><clipPath id="a"><path fill="#fff" d="M0 0h24v24H0z"/></clipPath></defs></svg>
